flaticon/hand-gestures/gestures.svg

<svg xmlns="http://www.w3.org/2000/svg" width="32" height="32" viewBox="0 0 24 24">
    <path d="M 20.207031 9.414062 C 20.207031 8.375 19.40625 7.574219 18.40625 7.574219 C 18.027344 7.574219 17.683594 7.65625 17.402344 7.8125 L 17.402344 2.605469 C 17.402344 1.5625 16.601562 0.761719 15.601562 0.800781 C 15.199219 0.800781 14.800781 0.960938 14.480469 1.203125 C 14.238281 0.519531 13.558594 0 12.796875 0 C 12.316406 0 11.875 0.160156 11.515625 0.519531 C 11.195312 0.839844 10.992188 1.320312 10.992188 1.804688 L 10.992188 1.882812 C 10.671875 1.683594 10.351562 1.5625 9.992188 1.5625 C 9.03125 1.5625 8.1875 2.402344 8.148438 3.40625 L 8.148438 10.457031 C 7.828125 9.734375 7.347656 9.015625 6.867188 8.535156 C 6.226562 7.894531 4.941406 7.851562 4.222656 8.453125 C 4.023438 8.65625 3.339844 9.375 4.261719 10.65625 C 5.101562 11.859375 5.785156 14.503906 5.785156 16.027344 C 5.785156 19.191406 7.867188 20.632812 8.589844 21.035156 L 8.589844 22.4375 C 8.589844 23.320312 9.308594 24 10.191406 24 L 17.402344 24 C 18.285156 24 19.007812 23.277344 18.964844 22.4375 L 18.964844 20.996094 C 20.167969 19.390625 20.167969 19.152344 20.167969 16.148438 L 20.167969 12.355469 C 20.195312 12.238281 20.207031 12.113281 20.207031 11.980469 Z M 17.402344 9.175781 C 17.402344 8.574219 17.925781 8.375 18.40625 8.375 C 18.425781 8.375 18.445312 8.375 18.460938 8.375 C 18.472656 8.375 18.480469 8.378906 18.488281 8.378906 C 18.496094 8.378906 18.507812 8.378906 18.515625 8.378906 C 18.527344 8.382812 18.535156 8.382812 18.546875 8.382812 C 18.554688 8.386719 18.5625 8.386719 18.570312 8.386719 C 18.582031 8.390625 18.589844 8.390625 18.597656 8.394531 C 18.609375 8.394531 18.621094 8.398438 18.632812 8.402344 C 18.636719 8.402344 18.640625 8.402344 18.648438 8.40625 C 19.007812 8.5 19.222656 8.800781 19.328125 9.015625 C 19.378906 9.140625 19.40625 9.277344 19.40625 9.414062 L 19.40625 11.980469 C 19.40625 12.582031 18.886719 12.78125 18.40625 12.78125 C 17.964844 12.78125 17.402344 12.582031 17.402344 11.980469 Z M 18.472656 20.394531 L 17.804688 20.394531 C 17.5625 20.394531 17.402344 20.554688 17.402344 20.792969 C 17.402344 21.035156 17.5625 21.195312 17.804688 21.195312 L 18.234375 21.195312 L 18.207031 22.398438 C 18.207031 22.839844 17.84375 23.199219 17.402344 23.199219 L 10.191406 23.199219 C 9.75 23.199219 9.390625 22.878906 9.390625 22.4375 L 9.390625 21.195312 L 10.191406 21.195312 C 10.433594 21.195312 10.59375 21.035156 10.59375 20.792969 C 10.59375 20.554688 10.433594 20.394531 10.191406 20.394531 L 9.058594 20.394531 C 8.597656 20.167969 6.585938 18.96875 6.585938 16.027344 C 6.585938 14.542969 5.984375 11.621094 4.941406 10.175781 C 4.664062 9.816406 4.421875 9.335938 4.78125 9.054688 C 4.941406 8.894531 5.222656 8.816406 5.503906 8.816406 C 5.824219 8.816406 6.144531 8.894531 6.304688 9.09375 C 7.308594 10.058594 8.1875 12.179688 8.1875 13.183594 C 8.1875 13.257812 8.203125 13.324219 8.234375 13.382812 C 8.296875 14.390625 8.953125 15.183594 9.792969 15.183594 C 10.03125 15.183594 10.191406 15.023438 10.191406 14.785156 C 10.191406 14.542969 10.03125 14.382812 9.792969 14.382812 C 9.390625 14.382812 9.03125 13.863281 9.03125 13.222656 C 9.03125 13.152344 9.015625 13.085938 8.988281 13.03125 L 8.988281 3.40625 C 8.988281 2.84375 9.472656 2.363281 9.992188 2.363281 C 10.550781 2.363281 10.992188 2.84375 10.992188 3.40625 L 10.992188 10.378906 C 10.992188 10.578125 10.953125 10.738281 10.914062 10.777344 C 10.710938 10.816406 10.59375 10.976562 10.59375 11.179688 C 10.59375 11.417969 10.753906 11.578125 10.992188 11.578125 C 11.144531 11.578125 11.28125 11.527344 11.394531 11.4375 C 11.507812 11.527344 11.644531 11.578125 11.792969 11.578125 C 12.035156 11.578125 12.195312 11.417969 12.195312 11.179688 C 12.195312 10.976562 12.035156 10.816406 11.875 10.777344 C 11.835938 10.738281 11.792969 10.578125 11.792969 10.378906 L 11.792969 1.804688 C 11.792969 1.523438 11.914062 1.28125 12.074219 1.082031 C 12.273438 0.882812 12.515625 0.761719 12.796875 0.761719 C 13.355469 0.761719 13.796875 1.242188 13.796875 1.761719 L 13.796875 11.179688 C 13.796875 11.378906 13.757812 11.539062 13.71875 11.578125 C 13.515625 11.621094 13.398438 11.78125 13.398438 11.980469 C 13.398438 12.21875 13.558594 12.378906 13.796875 12.378906 C 13.949219 12.378906 14.085938 12.328125 14.199219 12.238281 C 14.3125 12.328125 14.449219 12.378906 14.597656 12.378906 C 14.839844 12.378906 15 12.21875 15 11.980469 C 15 11.78125 14.839844 11.621094 14.679688 11.578125 C 14.640625 11.539062 14.597656 11.378906 14.597656 11.179688 L 14.597656 2.5625 C 14.597656 2.042969 15.078125 1.5625 15.601562 1.5625 C 16.160156 1.5625 16.601562 2.042969 16.601562 2.605469 L 16.601562 11.980469 C 16.601562 12.941406 17.324219 13.582031 18.40625 13.582031 C 18.789062 13.582031 19.128906 13.5 19.40625 13.351562 L 19.40625 16.105469 C 19.40625 18.96875 19.40625 19.105469 18.472656 20.394531 Z M 18.472656 20.394531"/>
</svg>

<svg xmlns="http://www.w3.org/2000/svg" width="32" height="32" viewBox="0 0 24 24">
    <path d="M20.207 9.414c0-1.039-.8-1.84-1.8-1.84-.38 0-.723.082-1.005.239V2.604c0-1.042-.8-1.843-1.8-1.804-.403 0-.801.16-1.122.402C14.238.52 13.56 0 12.797 0c-.48 0-.922.16-1.281.52-.32.32-.524.8-.524 1.285v.078c-.32-.2-.64-.32-1-.32-.96 0-1.805.84-1.844 1.843v7.051c-.32-.723-.8-1.441-1.28-1.922-.641-.64-1.927-.683-2.645-.082-.2.203-.883.922.039 2.203.84 1.203 1.523 3.848 1.523 5.371 0 3.164 2.082 4.606 2.805 5.008v1.402c0 .883.719 1.563 1.601 1.563h7.211c.883 0 1.606-.723 1.563-1.563v-1.44c1.203-1.606 1.203-1.845 1.203-4.849v-3.793c.027-.117.039-.242.039-.375zm-2.805-.238c0-.602.524-.801 1.004-.801h.055c.012 0 .02.004.027.004h.028c.011.004.02.004.03.004a.05.05 0 0 0 .024.004c.012.004.02.004.028.008.011 0 .023.003.035.007a.03.03 0 0 1 .015.004c.36.094.575.395.68.61.05.125.078.261.078.398v2.566c0 .602-.52.801-1 .801-.441 0-1.004-.199-1.004-.8zm1.07 11.219h-.667c-.242 0-.403.16-.403.398 0 .242.16.402.403.402h.43l-.028 1.203c0 .442-.363.801-.805.801h-7.21c-.442 0-.801-.32-.801-.762v-1.242h.8c.243 0 .403-.16.403-.402 0-.238-.16-.398-.403-.398H9.06c-.461-.227-2.473-1.426-2.473-4.368 0-1.484-.602-4.406-1.645-5.851-.277-.36-.52-.84-.16-1.121.16-.16.442-.239.723-.239.32 0 .64.079.8.278 1.005.965 1.883 3.086 1.883 4.09 0 .074.016.14.047.199.063 1.008.72 1.8 1.559 1.8.238 0 .398-.16.398-.398 0-.242-.16-.402-.398-.402-.402 0-.762-.52-.762-1.16a.431.431 0 0 0-.043-.192V3.406c0-.562.485-1.043 1.004-1.043.559 0 1 .48 1 1.043v6.973c0 .2-.039.36-.078.398-.203.04-.32.2-.32.403 0 .238.16.398.398.398.153 0 .29-.05.403-.14.113.09.25.14.398.14.242 0 .402-.16.402-.398a.43.43 0 0 0-.32-.403c-.04-.039-.082-.199-.082-.398V1.805c0-.282.121-.524.281-.723.2-.2.442-.32.723-.32.558 0 1 .48 1 1v9.418c0 .199-.04.36-.078.398a.392.392 0 0 0-.32.402c0 .239.16.399.398.399.152 0 .289-.05.402-.14.114.09.25.14.399.14.242 0 .402-.16.402-.399 0-.199-.16-.359-.32-.402-.04-.039-.082-.2-.082-.398V2.563c0-.52.48-1 1.004-1 .558 0 1 .48 1 1.042v9.375c0 .961.722 1.602 1.804 1.602.383 0 .723-.082 1-.23v2.753c0 2.864 0 3-.933 4.29zm0 0"/>
</svg>
